A7III_SLOG3_REC709_DOC_BASE.cube
TITLE "Generated by Resolve"
LUT_3D_SIZE 9
0.0231479 0.0231479 0.0231479
0.0339971 0.02916 0.02916
0.0925154 0.0439002 0.0439002
0.229465 0.038056 0.0388647
0.438315 0.00883497 0.0112917
0.644633 0 0
0.721065 0 0
0.742382 0 0.00411994
0.751827 0 0.0297398
0.0341802 0.0391241 0.034165
0.0373999 0.0375372 0.0340276
0.0946975 0.0453803 0.0444648
0.236866 0.0372015 0.0380407
0.445502 0.00766003 0.0104067
0.648142 0 0
0.722744 0 0
0.742977 0 0.00511177
0.752117 0 0.0313878
0.0539406 0.111055 0.0537423
0.0537423 0.108782 0.0535134
0.102998 0.105303 0.0569619
0.261173 0.0877852 0.0466926
0.465019 0.0277409 0.01178
0.651026 0 0
0.724453 0 0
0.743526 0 0.00604257
0.752483 0 0.033341
0.0184634 0.275715 0.0178531
0.0189364 0.273777 0.0183261
0.0345922 0.272038 0.0218204
0.280903 0.27631 0.0412604
0.570855 0.248722 0.037644
0.800427 0.126802 0.0034638
0.739437 0 0
0.744259 0 0.00727855
0.753231 0 0.0362097
0 0.523613 0
0 0.523842 0
0 0.521889 0
0.162539 0.546075 0.0200046
0.560037 0.537148 0.0484169
0.830014 0.495979 0.055314
0.936248 0.372747 0.0396735
0.904021 0.063859 0.0180209
0.754635 0 0.0409094
0 0.750927 0
0 0.751537 0
0 0.75201 0
0.0577249 0.765118 0.01355
0.485298 0.795026 0.0597391
0.831891 0.79501 0.0933242
0.978515 0.747372 0.111543
0.995026 0.615991 0.0932784
0.958053 0.183032 0.0555123
0.0241093 0.881712 0.0225834
0.0242313 0.882063 0.0227207
0.0243839 0.882414 0.0228428
0.0255741 0.882399 0.0231632
0.333211 0.93135 0.0799573
0.780224 0.952712 0.127062
0.995178 0.959152 0.16228
0.998901 0.931777 0.164736
0.998901 0.858213 0.144366
0.0439765 0.92517 0.0432441
0.0439918 0.925093 0.0438392
0.0439765 0.92491 0.0446937
0.0438849 0.924575 0.0454719
0.207462 0.957931 0.0842756
0.699504 0.993057 0.14023
0.966354 0.994873 0.170916
0.998901 0.998901 0.193973
0.998901 0.996567 0.196277
0.0690166 0.949233 0.303685
0.0692454 0.949447 0.308156
0.0692912 0.949477 0.309606
0.0740368 0.950774 0.311116
0.291325 0.990677 0.362478
0.679881 0.998901 0.397467
0.946975 0.998901 0.375387
0.998901 0.998901 0.221027
0.998901 0.998901 0.202579
0.025391 0.025803 0.0290532
0.0341192 0.0295415 0.0324102
0.0915389 0.0441444 0.0459297
0.230442 0.0381323 0.0401465
0.439582 0.00863661 0.0114443
0.644175 0 0
0.720592 0 0
0.741527 0 0
0.75111 0 0.0232548
0.0332799 0.0373236 0.0359503
0.0358282 0.0357977 0.0355993
0.0935073 0.0451209 0.0463874
0.236652 0.0374456 0.0398718
0.446479 0.0075227 0.0109102
0.6477 0 0
0.722332 0 0
0.742092 0 0
0.751507 0 0.0247959
0.0537575 0.109697 0.0541543
0.0535897 0.107301 0.0539101
0.102327 0.104387 0.0572976
0.261082 0.0871901 0.0469978
0.466133 0.0273747 0.0120241
0.650874 0 0
0.724041 0 0
0.742611 0 0
0.751965 0 0.0266728
0.018555 0.275364 0.0179599
0.0189975 0.273548 0.0184024
0.0341039 0.27071 0.0219272
0.280873 0.276081 0.0412909
0.571435 0.249485 0.0374762
0.802152 0.128939 0.00228885
0.739681 0 0
0.743358 0 0.000869764
0.752544 0 0.0293278
0 0.522835 0
0 0.523003 0
0 0.520653 0
0.16199 0.546624 0.0201724
0.560494 0.536721 0.0486
0.830365 0.49691 0.0556039
0.936751 0.374655 0.0399176
0.904845 0.0653239 0.0109102
0.753765 0 0.0334783
0 0.749996 0
0 0.750622 0
0 0.751141 0
0.0556802 0.764263 0.0129702
0.484459 0.794293 0.0595254
0.832334 0.794598 0.0933089
0.978912 0.749096 0.11194
0.99527 0.617136 0.0935531
0.958175 0.186465 0.0520333
0.0238956 0.881148 0.0225071
0.0240482 0.881529 0.0226749
0.0242618 0.882063 0.0229038
0.0252232 0.881727 0.0230564
0.330114 0.930694 0.0796063
0.780056 0.952346 0.12697
0.99527 0.959106 0.16228
0.998901 0.932036 0.164889
0.998901 0.859525 0.144671
0.045594 0.925765 0.0582284
0.0458534 0.925948 0.0601663
0.0458991 0.925841 0.0614176
0.0456092 0.925368 0.0605325
0.207691 0.958373 0.0955978
0.698695 0.993164 0.147539
0.966445 0.994995 0.1738
0.998901 0.998901 0.19408
0.998901 0.997024 0.196567
0.0710613 0.950912 0.340124
0.0712749 0.951141 0.34345
0.0714275 0.951278 0.345403
0.0760815 0.952667 0.346456
0.294209 0.992416 0.399176
0.679179 0.998901 0.437263
0.944121 0.998901 0.419959
0.998901 0.998901 0.27982
0.998901 0.998901 0.202792
0.0323491 0.0366827 0.072343
0.0352178 0.0370184 0.0726482
0.0928969 0.0449836 0.0814679
0.220798 0.0420081 0.0791485
0.442374 0.00929274 0.0525063
0.64976 0 0.00801099
0.720913 0 0
0.7402 0 0
0.749599 0 0.0123445
0.0329595 0.037995 0.0743877
0.0340124 0.037644 0.0744182
0.0940414 0.0451209 0.0836042
0.22884 0.0408179 0.0813916
0.450126 0.0081178 0.0550546
0.65333 0 0.0111086
0.722759 0 0
0.740642 0 0
0.749966 0 0.013611
0.0531014 0.102159 0.0901808
0.0526284 0.0990921 0.0894026
0.0947585 0.0964981 0.0941329
0.238651 0.0789044 0.08925
0.460487 0.018555 0.0564431
0.655756 0 0.0148775
0.724651 0 0
0.74107 0 0
0.750393 0 0.0149691
0.0231174 0.271092 0.0654459
0.0234073 0.269825 0.0654917
0.0350195 0.266423 0.0673533
0.271305 0.273808 0.08365
0.561532 0.243046 0.0790723
0.79646 0.120089 0.0394446
0.740627 0 0
0.741695 0 0
0.751125 0 0.017258
0 0.520943 0.0191653
0 0.522072 0.0189822
0 0.519677 0.0176547
0.162997 0.545419 0.048127
0.557351 0.536141 0.0726482
0.828061 0.496376 0.069337
0.936889 0.376806 0.0418555
0.906325 0.0678111 0.000427253
0.752483 0 0.0208438
0 0.748394 0.00823987
0 0.748699 0.00796521
0 0.748882 0.00741588
0.0526131 0.760967 0.0210117
0.47985 0.791882 0.0650492
0.830701 0.792309 0.0954604
0.978729 0.747326 0.111864
0.995712 0.619272 0.0940566
0.958358 0.187839 0.046067
0.026978 0.882887 0.047364
0.0271763 0.883421 0.0475319
0.0271153 0.883482 0.0464942
0.0271611 0.882689 0.0435035
0.321111 0.930404 0.0919051
0.778149 0.951385 0.131853
0.994797 0.958053 0.161898
0.998901 0.932296 0.165011
0.998901 0.862013 0.145266
0.05449 0.932128 0.153094
0.0546426 0.93225 0.154986
0.0547189 0.93225 0.156527
0.0545357 0.931945 0.154467
0.219806 0.966278 0.190173
0.692836 0.998901 0.223499
0.965972 0.996567 0.2009
0.998901 0.998901 0.195621
0.998901 0.997696 0.196948
0.0740978 0.953613 0.389166
0.0742809 0.95378 0.391394
0.0743572 0.953872 0.392233
0.0779583 0.954971 0.394278
0.299153 0.99469 0.45127
0.679393 0.998901 0.500481
0.940414 0.998901 0.487999
0.998901 0.998901 0.413077
0.998901 0.998901 0.20737
0.0321355 0.0437476 0.171588
0.0322423 0.0437476 0.171664
0.0841382 0.0460059 0.186831
0.230015 0.0367742 0.188083
0.442939 0.00709545 0.174868
0.655497 0 0.128801
0.732601 0 0.0767376
0.742992 0 0.0087892
0.746883 0 0
0.0319066 0.0438087 0.176486
0.0319219 0.0438087 0.176608
0.0841993 0.0460059 0.19237
0.235386 0.035935 0.194247
0.449073 0.00582895 0.180468
0.659175 0 0.134859
0.734218 0 0.0821393
0.74377 0 0.0108797
0.747021 0 0
0.040528 0.0782483 0.187701
0.039826 0.0750286 0.187549
0.0738537 0.0687114 0.198093
0.234455 0.0469215 0.200687
0.449989 0.00585946 0.184543
0.661967 0 0.141634
0.735531 0 0.0877852
0.744686 0 0.0137942
0.747005 0 0
0.0264439 0.254154 0.199054
0.0267338 0.252583 0.199115
0.033051 0.247028 0.200961
0.23827 0.250324 0.241154
0.51519 0.206088 0.23978
0.774884 0.0768292 0.179629
0.737804 0 0.0927443
0.745998 0 0.0189212
0.74728 0 0
0 0.516213 0.211353
0 0.516747 0.212436
0.000137331 0.515267 0.212161
0.143313 0.537194 0.245365
0.532403 0.535637 0.268666
0.797574 0.492164 0.262119
0.921355 0.366827 0.185351
0.906966 0.0643778 0.0485847
0.74934 0 0
0.0129702 0.752194 0.227878
0.0128786 0.752422 0.228397
0.0128634 0.752895 0.228016
0.0497597 0.760082 0.238346
0.441581 0.804257 0.278874
0.815641 0.802518 0.302678
0.971542 0.750622 0.269642
0.993332 0.620935 0.136584
0.95848 0.185901 0.0344091
0.0410315 0.892561 0.258442
0.0413672 0.893217 0.260212
0.041474 0.893492 0.260517
0.0413519 0.89279 0.257542
0.298299 0.938933 0.309957
0.757763 0.965393 0.342153
0.987381 0.962356 0.321675
0.998901 0.931044 0.193683
0.998901 0.86424 0.14583
0.0660105 0.941451 0.338598
0.0661936 0.941665 0.340444
0.0663462 0.941894 0.341436
0.0664836 0.942077 0.341787
0.218509 0.973861 0.379385
0.677409 0.998901 0.433021
0.954955 0.998901 0.417762
0.998901 0.998901 0.319219
0.998901 0.998367 0.199695
0.0778363 0.957382 0.461814
0.0778973 0.957427 0.462974
0.0779431 0.957473 0.464088
0.0802777 0.958267 0.465614
0.293965 0.99649 0.524163
0.686564 0.998901 0.592752
0.935668 0.998901 0.584558
0.998901 0.998901 0.547738
0.998901 0.998901 0.297597
0.0222324 0.0424353 0.337865
0.0221561 0.0424048 0.338827
0.0559701 0.0431373 0.354131
0.217884 0.0305486 0.370901
0.431571 0 0.361685
0.651164 0 0.32845
0.732937 0 0.282048
0.758099 0 0.218326
0.75285 0 0.0506447
0.0218662 0.0423285 0.342672
0.0217746 0.042298 0.343709
0.0553292 0.0429999 0.359518
0.222217 0.0297246 0.377127
0.437873 0 0.367361
0.654887 0 0.334005
0.73434 0 0.288075
0.758526 0 0.223774
0.753857 0 0.054963
0.0217746 0.0427253 0.345418
0.0215915 0.0424201 0.346746
0.0405127 0.0426947 0.356191
0.21416 0.0305333 0.38114
0.438178 0 0.371328
0.657572 0 0.339406
0.735973 0 0.294408
0.758862 0 0.230243
0.751125 0 0.060441
0.0186923 0.211398 0.389441
0.018967 0.209689 0.391165
0.0212711 0.20119 0.391974
0.185718 0.181811 0.454231
0.504128 0.116976 0.449226
0.721782 0.0170138 0.383536
0.73637 0 0.300267
0.758999 0 0.238254
0.757092 0 0.0646983
0 0.4907 0.399573
0 0.491173 0.401236
0 0.488853 0.401785
0.113359 0.505562 0.443381
0.493324 0.505745 0.490562
0.751568 0.4654 0.486534
0.903014 0.318532 0.433616
0.88217 0.0247807 0.294575
0.762005 0 0.0770123
0.0149691 0.740444 0.425086
0.0150912 0.741466 0.426551
0.0149844 0.740749 0.426902
0.0349584 0.743557 0.435721
0.422171 0.790722 0.51014
0.791394 0.799054 0.544244
0.953155 0.751614 0.540688
0.972854 0.631647 0.458869
0.95967 0.19115 0.161791
0.0471962 0.894682 0.451698
0.0474098 0.89514 0.453071
0.0475776 0.895537 0.454093
0.0479286 0.894957 0.454566
0.312825 0.941527 0.525216
0.738354 0.972595 0.583291
0.972732 0.964523 0.591211
0.998901 0.938323 0.541299
0.998901 0.87013 0.331273
0.0742351 0.94934 0.490196
0.0744335 0.94966 0.492424
0.0745251 0.949813 0.493339
0.0746471 0.950011 0.494209
0.201358 0.977249 0.534997
0.68307 0.998901 0.627909
0.945556 0.998901 0.629618
0.998901 0.998901 0.604517
0.998901 0.998901 0.425528
0.0820783 0.961929 0.557717
0.0821241 0.961975 0.558968
0.0821698 0.962036 0.560174
0.0829023 0.962295 0.561364
0.276616 0.997024 0.619379
0.69308 0.998901 0.710109
0.929839 0.998901 0.719722
0.998901 0.998901 0.707286
0.998901 0.998901 0.611093
0.00825513 0.0367132 0.510338
0.00813306 0.0366369 0.511772
0.0171206 0.0365759 0.518517
0.178668 0.0258488 0.571603
0.412985 0 0.566155
0.639887 0 0.540352
0.734066 0 0.494514
0.758328 0 0.445258
0.765454 0 0.381415
0.00782788 0.0364691 0.51548
0.00769055 0.0363928 0.517006
0.0155337 0.0363165 0.523308
0.18175 0.0250858 0.577462
0.418753 0 0.571969
0.643626 0 0.544488
0.735607 0 0.500313
0.758938 0 0.451865
0.765484 0 0.387808
0.00753796 0.0363012 0.518776
0.00741588 0.0362249 0.520058
0.00819409 0.0361028 0.521828
0.168399 0.0266728 0.579995
0.41709 0 0.576104
0.645747 0 0.548989
0.736538 0 0.505562
0.759823 0 0.458106
0.765713 0 0.39469
0.0124971 0.126268 0.57113
0.0123903 0.125185 0.572564
0.0127108 0.120851 0.572427
0.126772 0.104555 0.628885
0.427237 0.0356451 0.622171
0.657099 0 0.568475
0.735927 0 0.51014
0.761151 0 0.467689
0.766293 0 0.402945
0 0.449439 0.585092
0 0.448981 0.586419
0 0.446479 0.587808
0.0679637 0.453178 0.622385
0.439933 0.443961 0.69279
0.750118 0.384588 0.689723
0.910613 0.208392 0.638209
0.809918 0 0.501503
0.767712 0 0.415351
0.00898756 0.716091 0.593988
0.00885023 0.716594 0.595056
0.00883497 0.716091 0.596353
0.0263066 0.71783 0.605203
0.390387 0.759564 0.694102
0.759487 0.771908 0.753887
0.931853 0.741558 0.754986
0.943297 0.6224 0.693278
0.953735 0.165438 0.553017
0.0462196 0.8916 0.616892
0.04654 0.892378 0.61886
0.0465553 0.892454 0.61976
0.046128 0.891524 0.6206
0.276844 0.933028 0.696056
0.731426 0.964935 0.792081
0.957336 0.957626 0.812894
0.998901 0.938994 0.801236
0.998901 0.882246 0.725597
0.0797436 0.957824 0.646586
0.0797894 0.957916 0.647822
0.0798199 0.957977 0.649393
0.0798962 0.957977 0.650797
0.180514 0.979843 0.690455
0.684199 0.998901 0.808621
0.938323 0.998901 0.834546
0.998901 0.998901 0.83566
0.998901 0.996612 0.782177
0.0848096 0.967071 0.679316
0.0848402 0.967147 0.680537
0.0848859 0.967269 0.682307
0.0849317 0.967361 0.683619
0.24773 0.997101 0.739818
0.689632 0.998901 0.840803
0.929488 0.998901 0.873274
0.998901 0.998901 0.87306
0.998901 0.998901 0.842237
0 0.0300755 0.641566
0 0.0300298 0.64242
0 0.0299992 0.643153
0.118288 0.0259251 0.697475
0.371786 0 0.707378
0.609384 0 0.693324
0.730831 0 0.679179
0.763149 0 0.660883
0.760632 0 0.636362
0 0.0299687 0.643748
0 0.0299229 0.644465
0 0.0298924 0.645518
0.115999 0.0261082 0.698909
0.375784 0 0.709697
0.614664 0 0.695247
0.733043 0 0.682414
0.76379 0 0.66598
0.760464 0 0.640177
0 0.0298924 0.645136
0 0.0298466 0.646021
0 0.0298161 0.646738
0.0973678 0.027451 0.695308
0.371939 0 0.71136
0.616205 0 0.697429
0.734737 0 0.68513
0.764446 0 0.669413
0.76054 0 0.642939
0 0.0635996 0.676875
0 0.0621958 0.676249
0 0.0578775 0.673213
0.072694 0.0461585 0.704265
0.349813 0 0.717891
0.604303 0 0.699321
0.734615 0 0.687648
0.765194 0 0.672343
0.761395 0 0.646784
0 0.366583 0.761395
0 0.366232 0.762921
0 0.361654 0.764294
0.00697337 0.354849 0.783825
0.368963 0.344564 0.865812
0.701228 0.261082 0.86923
0.886625 0.0857252 0.830045
0.773037 0 0.677745
0.766934 0 0.654978
0 0.658747 0.746075
0 0.659709 0.747082
0 0.659052 0.748043
0.000335698 0.656153 0.750332
0.311833 0.692271 0.831998
0.708461 0.714427 0.897185
0.929503 0.678126 0.902861
0.955612 0.53547 0.848508
0.938262 0.102632 0.785794
0.0378576 0.88217 0.778088
0.0380407 0.882628 0.77879
0.0379187 0.882414 0.779477
0.0374609 0.881376 0.779828
0.213642 0.916426 0.84065
0.704265 0.953521 0.925368
0.944213 0.948013 0.94197
0.995605 0.937285 0.940658
0.995636 0.877348 0.917357
0.0771801 0.958251 0.799435
0.0770123 0.958053 0.800061
0.0769818 0.957992 0.800885
0.0766613 0.957443 0.801587
0.20383 0.982864 0.847349
0.660044 0.998901 0.931289
0.937163 0.998901 0.95172
0.998901 0.998901 0.959152
0.998901 0.995499 0.951583
0.0852064 0.971832 0.806058
0.0852827 0.971969 0.806989
0.085359 0.972107 0.808011
0.0854353 0.972229 0.808942
0.198566 0.995468 0.849897
0.671794 0.998901 0.935088
0.933288 0.998901 0.956771
0.996628 0.998901 0.965713
0.998901 0.998901 0.963287
0 0.0275273 0.685145
0 0.027512 0.685344
0 0.0274968 0.685695
0.0693065 0.0266423 0.725292
0.331319 0 0.752743
0.571557 0 0.741527
0.724605 0 0.746395
0.7682 0 0.738064
0.784772 0 0.736355
0 0.0274968 0.685618
0 0.0274815 0.685924
0 0.027451 0.686168
0.0672313 0.0266575 0.724941
0.332219 0 0.753307
0.576059 0 0.742123
0.727672 0 0.747753
0.768353 0 0.739345
0.783169 0 0.738048
0 0.0274815 0.685908
0 0.027451 0.686213
0 0.0274357 0.686473
0.0602884 0.0269322 0.722408
0.325643 0 0.753521
0.574639 0 0.742672
0.729763 0 0.748302
0.768429 0 0.740734
0.78143 0 0.739498
0 0.0364538 0.694881
0 0.0354162 0.694041
0 0.0330663 0.691997
0.0398566 0.0293126 0.714229
0.298543 0 0.753674
0.559258 0 0.743282
0.727016 0 0.747524
0.76846 0 0.742214
0.779095 0 0.740963
0 0.283253 0.840223
0 0.281895 0.840436
0 0.277821 0.840299
0 0.268605 0.84773
0.304021 0.25565 0.93814
0.648112 0.158877 0.936034
0.840101 0.0266575 0.876234
0.770138 0 0.7449
0.776196 0 0.742535
0 0.597528 0.813321
0 0.598154 0.813886
0 0.597986 0.814328
0 0.594141 0.815869
0.248264 0.629465 0.886564
0.658503 0.656886 0.942641
0.90132 0.612467 0.949325
0.946792 0.454139 0.918532
0.912322 0.0437324 0.874937
0.0211185 0.842908 0.831083
0.0211185 0.842924 0.831357
0.0211337 0.843107 0.831876
0.0209354 0.841794 0.832181
0.170199 0.87332 0.882231
0.65745 0.924743 0.960128
0.930312 0.93341 0.979095
0.992294 0.918105 0.981704
0.997055 0.841901 0.970397
0.0718853 0.953307 0.875319
0.0719463 0.953429 0.875837
0.0719158 0.953414 0.876387
0.0717021 0.953109 0.876936
0.156756 0.972915 0.908598
0.631434 0.998901 0.981003
0.930022 0.998306 0.988312
0.998901 0.998901 0.997574
0.998901 0.996094 0.996292
0.0821546 0.97026 0.871351
0.0821088 0.970199 0.871824
0.0820478 0.970138 0.872374
0.0820172 0.970123 0.873243
0.130465 0.982483 0.893843
0.649241 0.998901 0.977523
0.927916 0.998901 0.987701
0.998032 0.998901 0.998901
0.998901 0.998901 0.998901
0 0.0264134 0.69659
0 0.0264134 0.69662
0 0.0264134 0.696681
0.0428168 0.026215 0.725261
0.295583 0 0.764874
0.539666 0 0.755001
0.708354 0 0.75758
0.766171 0 0.767147
0.7608 0 0.766903
0 0.0264134 0.696696
0 0.0264134 0.696742
0 0.0263981 0.696803
0.0426947 0.0262913 0.725383
0.293721 0 0.764874
0.541009 0 0.755047
0.711208 0 0.758328
0.766751 0 0.76759
0.762814 0 0.767712
0 0.0264134 0.696742
0 0.0264134 0.696803
0 0.0264134 0.696834
0.0365148 0.0264591 0.722271
0.284031 0 0.764721
0.536141 0 0.755566
0.711711 0 0.758495
0.767422 0 0.767926
0.765682 0 0.768566
0 0.0411841 0.711833
0 0.0407416 0.711406
0 0.0391852 0.709895
0.0193484 0.0349279 0.721447
0.258503 0.00418097 0.768872
0.523308 0 0.760418
0.706584 0 0.757412
0.767971 0 0.768277
0.768109 0 0.769024
0 0.279423 0.859098
0 0.279515 0.859083
0 0.277272 0.858778
0 0.263722 0.859556
0.249409 0.250675 0.950317
0.615076 0.19321 0.957305
0.828504 0.0497292 0.905699
0.781064 0 0.781231
0.770504 0 0.768673
0 0.576638 0.837125
0 0.577066 0.83714
0 0.577173 0.837201
0 0.574289 0.837674
0.20383 0.608362 0.901717
0.633173 0.646769 0.954849
0.880827 0.604135 0.961944
0.943862 0.458885 0.946471
0.920913 0.0624399 0.914122
0.0130617 0.817105 0.846464
0.0131991 0.81767 0.846693
0.0132143 0.817761 0.846799
0.0129244 0.816571 0.846632
0.133822 0.843717 0.888441
0.629252 0.905089 0.968261
0.920485 0.926101 0.990585
0.986908 0.91043 0.995514
0.997024 0.831632 0.990005
0.0631571 0.939513 0.894347
0.0632334 0.939635 0.894499
0.0631571 0.939529 0.89453
0.0627909 0.938872 0.894316
0.124178 0.953994 0.916793
0.609552 0.998566 0.99263
0.921553 0.992111 0.998901
0.9953 0.996506 0.998901
0.998901 0.991974 0.998901
0.0819715 0.971756 0.906325
0.0820172 0.971847 0.906569
0.0820478 0.971908 0.906889
0.0834974 0.972396 0.90782
0.20589 0.997787 0.945693
0.638682 0.998901 0.99881
0.923903 0.998901 0.998901
0.997131 0.998901 0.998901
0.998901 0.998901 0.998901
