A7III_SLOG3_REC709_DOC_BASE.cube
TITLE "Generated by Resolve"
LUT_3D_SIZE 33
0.0231479 0.0231479 0.0231479
0.0236362 0.0235142 0.0235142
0.0241245 0.0238956 0.0238956
0.0284123 0.0261845 0.0261845
0.0339971 0.02916 0.02916
0.043946 0.0328222 0.0328222
0.0576333 0.0372168 0.0372168
0.0730297 0.041001 0.041001
0.0925154 0.0439002 0.0439002
0.114794 0.0459602 0.0463722
0.144808 0.0455177 0.0460365
0.181903 0.0434424 0.0441749
0.229465 0.038056 0.0388647
0.281682 0.0317235 0.0328222
0.332982 0.0248569 0.0261234
0.385931 0.0171359 0.0186618
0.438315 0.00883497 0.0112917
0.492348 0 0.00302129
0.548943 0 0
0.599619 0 0
0.644633 0 0
0.671611 0 0
0.695232 0 0
0.708385 0 0
0.721065 0 0
0.728206 0 0
0.733394 0 0
0.737652 0 0
0.742382 0 0.00411994
0.746059 0 0.0105287
0.747646 0 0.0134127
0.749401 0 0.0174868
0.751827 0 0.0297398
0.0241093 0.0242466 0.0241093
0.0243534 0.0243534 0.0242466
0.0245823 0.0244602 0.0243839
0.0289006 0.0266117 0.026566
0.0342565 0.0293278 0.0293126
0.0445106 0.0330053 0.0330053
0.0582437 0.0374151 0.0374151
0.0740826 0.0411536 0.0411536
0.0935225 0.0439155 0.0442664
0.115984 0.0459602 0.0463722
0.146227 0.0454719 0.0460059
0.183719 0.0433204 0.0440528
0.232288 0.0377203 0.0385443
0.28426 0.0314183 0.032517
0.335317 0.0245212 0.025803
0.388235 0.0168002 0.0183566
0.440391 0.00849927 0.011017
0.494636 0 0.00271611
0.550958 0 0
0.601999 0 0
0.645777 0 0
0.672557 0 0
0.695994 0 0
0.708843 0 0
0.721553 0 0
0.72845 0 0
0.733593 0 0
0.737819 0 0
0.74255 0 0.0043946
0.74612 0 0.0105898
0.747738 0 0.0135805
0.749523 0 0.0179904
0.751904 0 0.0302281
0.0250858 0.0253452 0.0250858
0.0250401 0.0251774 0.0249638
0.0250095 0.0250095 0.0248569
0.0292973 0.0269627 0.0268864
0.0344396 0.0294652 0.0294194
0.0449683 0.0331579 0.0331579
0.0588846 0.0375982 0.0375982
0.0747082 0.0412604 0.041474
0.0942855 0.0439918 0.0443275
0.116976 0.0459754 0.0463874
0.147463 0.0454261 0.0459754
0.18526 0.043183 0.0439307
0.234058 0.0375372 0.0383764
0.286183 0.0312047 0.0323033
0.337194 0.0242161 0.0254978
0.389929 0.016556 0.0181582
0.44184 0.00827039 0.0108797
0.496452 0 0.00250248
0.552728 0 0
0.603296 0 0
0.646677 0 0
0.673243 0 0
0.696468 0 0
0.709194 0 0
0.72195 0 0
0.728588 0 0
0.7337 0 0
0.737942 0 0
0.742672 0 0.00459297
0.746197 0 0.0106661
0.747799 0 0.0137026
0.749615 0 0.0184024
0.751965 0 0.0306401
0.0292668 0.0316777 0.0292668
0.029099 0.0312963 0.0290379
0.0289464 0.03093 0.0288548
0.0322118 0.0319066 0.0301366
0.0359045 0.0332799 0.031632
0.0460365 0.035996 0.0346532
0.059266 0.0392309 0.0381933
0.0750896 0.0422827 0.0417029
0.0946212 0.0446784 0.0443427
0.117464 0.0462959 0.0462806
0.148226 0.0455634 0.0455634
0.186709 0.0430457 0.0437934
0.235462 0.0373693 0.0382086
0.287907 0.0309911 0.032105
0.338796 0.0239414 0.0252232
0.391546 0.0163272 0.0179446
0.4439 0.00791943 0.010605
0.498604 0 0.00227359
0.55436 0 0
0.604807 0 0
0.647288 0 0
0.673747 0 0
0.696834 0 0
0.709575 0 0
0.722347 0 0
0.728756 0 0
0.733837 0 0
0.738064 0 0
0.74284 0 0.00489815
0.746258 0 0.0107424
0.747875 0 0.0138247
0.749706 0 0.0188296
0.752041 0 0.0310521
0.0341802 0.0391241 0.034165
0.0338903 0.0385595 0.0338598
0.0334478 0.0378729 0.0334173
0.0352178 0.0377508 0.0336614
0.0373999 0.0375372 0.0340276
0.0464485 0.0390326 0.0361334
0.0593118 0.0411994 0.0390173
0.0750591 0.0433661 0.0418708
0.0946975 0.0453803 0.0444648
0.117922 0.0466163 0.0463569
0.148821 0.0457008 0.0457008
0.187289 0.0429847 0.0437324
0.236866 0.0372015 0.0380407
0.289631 0.0307774 0.0318914
0.34023 0.023743 0.0250095
0.393698 0.0160067 0.0176699
0.445502 0.00766003 0.0104067
0.50042 0 0.00207523
0.555978 0 0
0.606317 0 0
0.648142 0 0
0.674678 0 0
0.697215 0 0
0.709957 0 0
0.722744 0 0
0.728923 0 0
0.73402 0 0
0.738186 0 0
0.742977 0 0.00511177
0.746319 0 0.0108492
0.747921 0 0.0139315
0.749783 0 0.0191653
0.752117 0 0.0313878
0.0399939 0.0522164 0.0399634
0.0398108 0.0518196 0.039765
0.0394903 0.051133 0.0394446
0.0403754 0.0506447 0.0393683
0.0412604 0.0498817 0.0391699
0.0502785 0.0504463 0.0409094
0.0614481 0.0513924 0.0430762
0.0764324 0.0527199 0.0448768
0.096788 0.053727 0.0467231
0.120775 0.0538338 0.0477913
0.152895 0.0516213 0.0466468
0.191852 0.0476234 0.0437781
0.239017 0.040528 0.0382239
0.290806 0.0324254 0.0317693
0.341375 0.0246738 0.0246738
0.394644 0.0161135 0.0175021
0.446448 0.00749218 0.0101778
0.501732 0 0.00187686
0.557244 0 0
0.607904 0 0
0.649058 0 0
0.675151 0 0
0.697414 0 0
0.710216 0 0
0.723064 0 0
0.729107 0 0
0.734157 0 0
0.738338 0 0
0.743084 0 0.00527962
0.746365 0 0.010956
0.748012 0 0.0141451
0.74992 0 0.0197604
0.752194 0 0.0318151
0.0461891 0.0685283 0.046128
0.0461585 0.0681773 0.0460975
0.0459297 0.0674907 0.0458534
0.0460059 0.0665141 0.0455787
0.046128 0.065507 0.045304
0.0535134 0.0651713 0.0458991
0.0640116 0.0646983 0.0471809
0.0786145 0.0646983 0.0491798
0.0985275 0.0649729 0.0501106
0.122545 0.0639353 0.050248
0.15491 0.0602579 0.0485695
0.19527 0.0540932 0.04477
0.242161 0.0448005 0.038941
0.292302 0.0345922 0.032105
0.342992 0.0256199 0.0249027
0.396185 0.0160678 0.0174563
0.447822 0.00726329 0.00985733
0.503548 0 0.00158694
0.559014 0 0
0.609491 0 0
0.649805 0 0
0.675715 0 0
0.697734 0 0
0.710597 0 0
0.723507 0 0
0.729305 0 0
0.734325 0 0
0.738476 0 0
0.743221 0 0.00552377
0.746441 0 0.0110781
0.748089 0 0.0143587
0.750011 0 0.0201572
0.752255 0 0.032166
0.0510872 0.0879835 0.0509804
0.0509804 0.0875105 0.0508736
0.0508431 0.0868391 0.050721
0.0506142 0.0858167 0.0504463
0.0505379 0.0851453 0.0502937
0.056199 0.0842298 0.0505379
0.0640269 0.0836805 0.0508278
0.0800946 0.0826886 0.05243
0.101656 0.0821698 0.0546578
0.125765 0.0809949 0.0546426
0.158663 0.0776532 0.0525063
0.201236 0.0718547 0.0483253
0.24979 0.0615244 0.0417945
0.300999 0.0507362 0.0347906
0.352041 0.0400397 0.0270695
0.405158 0.028275 0.0189364
0.4551 0.0154879 0.0105898
0.507805 0.000961318 0.000961318
0.560678 0 0
0.610864 0 0
0.650462 0 0
0.676249 0 0
0.698161 0 0
0.711101 0 0
0.723964 0 0
0.729519 0 0
0.734493 0 0
0.738582 0 0
0.743374 0 0.00576791
0.746517 0 0.0112764
0.748196 0 0.0146792
0.750164 0 0.0206455
0.752361 0 0.0327001
0.0539406 0.111055 0.0537423
0.0539101 0.110658 0.053727
0.0537728 0.10988 0.0535897
0.0537728 0.109545 0.0535744
0.0537423 0.108782 0.0535134
0.0576028 0.108034 0.0537728
0.062562 0.10724 0.0540169
0.0777905 0.106828 0.0546578
0.102998 0.105303 0.0569619
0.130465 0.103929 0.0590219
0.166049 0.102144 0.0578775
0.209689 0.0971389 0.0534066
0.261173 0.0877852 0.0466926
0.315511 0.0775769 0.0395361
0.366125 0.0628367 0.0309758
0.419379 0.0478218 0.0219577
0.465019 0.0277409 0.01178
0.512016 0.00584421 0.000732433
0.562432 0 0
0.612009 0 0
0.651026 0 0
0.676783 0 0
0.698436 0 0
0.711513 0 0
0.724453 0 0
0.729732 0 0
0.734661 0 0
0.738781 0 0
0.743526 0 0.00604257
0.746609 0 0.0114595
0.748318 0 0.0149996
0.750301 0 0.0212711
0.752483 0 0.033341
0.0534524 0.138903 0.0531777
0.0534981 0.138369 0.0532235
0.0535439 0.137835 0.0532845
0.0535134 0.137469 0.053254
0.0535286 0.137133 0.0532692
0.0560616 0.135851 0.053727
0.0589609 0.134966 0.0540627
0.0732891 0.134661 0.054902
0.0984207 0.133776 0.0564431
0.129305 0.133272 0.0591592
0.169833 0.13109 0.0601968
0.218967 0.126757 0.057557
0.273213 0.119295 0.0517739
0.331212 0.11075 0.0450752
0.385122 0.0953078 0.036347
0.440742 0.079118 0.0272374
0.486885 0.0557717 0.0160372
0.534142 0.0304723 0.00366217
0.583673 0.010071 0
0.630213 0 0
0.665248 0 0
0.683558 0 0
0.698451 0 0
0.711818 0 0
0.724971 0 0
0.729961 0 0
0.73489 0 0
0.738933 0 0
0.743694 0 0.00634775
0.746715 0 0.0117494
0.748455 0 0.0154574
0.750484 0 0.0220188
0.752636 0 0.0339971
0.0465705 0.174853 0.0462806
0.0467079 0.174411 0.0464027
0.0467689 0.174182 0.0464637
0.0470283 0.173144 0.0467231
0.0472114 0.172473 0.046891
0.0486763 0.17116 0.0473487
0.0502327 0.170108 0.0477302
0.063386 0.170748 0.0489052
0.0851301 0.171374 0.0510109
0.116991 0.170718 0.0536202
0.16466 0.168872 0.0572061
0.223178 0.164935 0.0573281
0.285939 0.159777 0.0546578
0.351507 0.155093 0.0500496
0.410559 0.143023 0.043122
0.473182 0.130388 0.0357977
0.526024 0.108431 0.025803
0.579416 0.0831464 0.0137789
0.62826 0.0554208 0.000839246
0.668086 0.026688 0
0.690578 0.000274662 0
0.694606 0 0
0.698192 0 0
0.71194 0 0
0.72546 0 0
0.730205 0 0
0.734997 0 0
0.739101 0 0
0.743862 0 0.00666819
0.746838 0 0.0120546
0.748623 0 0.0159762
0.750683 0 0.0229038
0.752819 0 0.0347143
0.0343633 0.21944 0.033875
0.0343633 0.219364 0.033875
0.034638 0.218387 0.034165
0.0348058 0.217731 0.0343328
0.0349889 0.21709 0.0345159
0.0352941 0.215976 0.0348211
0.0356451 0.214786 0.0351568
0.0469673 0.215686 0.0367742
0.0648203 0.215885 0.0394293
0.0944533 0.218173 0.0426032
0.149218 0.217639 0.0477455
0.218296 0.215579 0.0510109
0.29015 0.213153 0.0504311
0.363287 0.210056 0.0487068
0.430564 0.201938 0.0455634
0.49897 0.193301 0.0412451
0.559213 0.174823 0.0349279
0.621225 0.154238 0.0264439
0.674968 0.118517 0.0134432
0.717098 0.0785077 0
0.736751 0.0400397 0
0.730892 0.00402838 0
0.725277 0 0
0.727901 0 0
0.729763 0 0
0.732525 0 0
0.735378 0 0
0.739269 0 0
0.74406 0 0.00698863
0.74699 0 0.0124361
0.748806 0 0.0166171
0.750912 0 0.0238499
0.753002 0 0.0352941
0.0184634 0.275715 0.0178531
0.018555 0.275303 0.0179599
0.0186618 0.274891 0.0180514
0.0187991 0.274327 0.0181888
0.0189364 0.273777 0.0183261
0.0190585 0.273259 0.0184482
0.0194705 0.271611 0.0188602
0.025803 0.271351 0.0202029
0.0345922 0.272038 0.0218204
0.0627451 0.275349 0.0262303
0.122133 0.281132 0.0332036
0.201404 0.281773 0.0390784
0.280903 0.27631 0.0412604
0.361044 0.271672 0.0425269
0.433921 0.267277 0.0422522
0.50663 0.26128 0.0408179
0.570855 0.248722 0.037644
0.635798 0.232944 0.0326238
0.697261 0.203677 0.0244755
0.757 0.168276 0.0140841
0.800427 0.126802 0.0034638
0.815991 0.0814069 0
0.808347 0.0396124 0
0.770047 0 0
0.739437 0 0
0.737743 0 0
0.735988 0 0
0.739437 0 0
0.744259 0 0.00727855
0.747143 0 0.0128939
0.74902 0 0.017258
0.751141 0 0.0247196
0.753231 0 0.0362097
0.004654 0.338338 0.00390631
0.00468452 0.338094 0.00393683
0.00471504 0.337835 0.0039826
0.004654 0.337942 0.00392157
0.0049897 0.336446 0.00425727
0.00515755 0.335576 0.00442512
0.00520333 0.33518 0.00445563
0.00578317 0.33373 0.00482185
0.00642405 0.332158 0.00514229
0.0342107 0.337621 0.0104982
0.0964218 0.347829 0.0211032
0.176684 0.349981 0.0292973
0.264378 0.343709 0.0332494
0.35256 0.338994 0.0364691
0.429236 0.336126 0.0383764
0.505913 0.334218 0.0395514
0.573556 0.3252 0.0391699
0.640497 0.315053 0.0372473
0.702647 0.294087 0.0318303
0.764675 0.268864 0.0246738
0.814862 0.234409 0.0175479
0.853559 0.188388 0.0107118
0.876081 0.128985 0.00205997
0.835828 0.044831 0
0.778454 0 0
0.764553 0 0
0.752636 0 0
0.750072 0 0
0.746929 0 0.00755322
0.74728 0 0.0132753
0.749249 0 0.0181125
0.751431 0 0.0259403
0.753506 0 0.0373541
0 0.400061 0
0 0.400397 0
0 0.401282 0
0 0.400504 0
0 0.40029 0
0 0.399359 0
0 0.399252 0
0 0.398154 0
0 0.396292 0
0.017731 0.401266 0
0.067628 0.409293 0.00872816
0.132433 0.41529 0.018555
0.233433 0.413291 0.0250401
0.341344 0.409369 0.0301671
0.421439 0.405737 0.0342718
0.500145 0.402243 0.0376287
0.570031 0.39559 0.0401007
0.639536 0.388907 0.0411078
0.704417 0.372625 0.0391241
0.767773 0.354101 0.0349737
0.817777 0.326726 0.0298009
0.856077 0.291585 0.0238041
0.888457 0.2439 0.0173648
0.905791 0.169833 0.00946059
0.904402 0.102205 0
0.86952 0.0491188 0
0.823331 0.0053254 0
0.785122 0 0
0.754528 0 0.00723278
0.747326 0 0.0134737
0.749493 0 0.019089
0.751766 0 0.027451
0.753796 0 0.0384985
0 0.462715 0
0 0.463752 0
0 0.463767 0
0 0.462638 0
0 0.46305 0
0 0.462684 0
0 0.462272 0
0 0.462013 0
0 0.461112 0
0.00375372 0.464271 0
0.0421149 0.471931 0
0.0974746 0.480034 0.00943008
0.204242 0.48368 0.0193637
0.330922 0.480644 0.0268101
0.413153 0.47631 0.0322881
0.494957 0.471 0.0378119
0.566323 0.467887 0.0423438
0.63888 0.464485 0.0460059
0.707866 0.453101 0.0467384
0.77409 0.440238 0.0460975
0.825483 0.419348 0.0433814
0.864424 0.39295 0.0393683
0.895232 0.361608 0.0343023
0.914214 0.318593 0.0264286
0.931411 0.26627 0.0191348
0.933288 0.163134 0.0166781
0.904433 0.0750744 0.00822461
0.838911 0.012192 0.00352483
0.776425 0 0.00636301
0.75845 0 0.013138
0.75317 0 0.0200046
0.752071 0 0.0287175
0.754162 0 0.0396429
0 0.523613 0
0 0.523217 0
0 0.523842 0
0 0.524376 0
0 0.523842 0
0 0.524086 0
0 0.523796 0
0 0.523156 0
0 0.521889 0
0 0.523964 0
0.0174105 0.527764 0
0.0616312 0.536522 0.00442512
0.162539 0.546075 0.0200046
0.29543 0.545769 0.0294804
0.391089 0.542809 0.0365301
0.48542 0.539391 0.0431525
0.560037 0.537148 0.0484169
0.635767 0.533394 0.0532998
0.706615 0.52462 0.0552682
0.776333 0.513085 0.0561379
0.830014 0.495979 0.055314
0.871794 0.474174 0.0533303
0.903639 0.447532 0.0506447
0.921614 0.414755 0.0458228
0.936248 0.372747 0.0396735
0.940887 0.297917 0.0320134
0.948623 0.224063 0.0266728
0.94168 0.136934 0.0252537
0.904021 0.063859 0.0180209
0.838392 0.00602731 0.0151522
0.775326 0 0.0194858
0.75256 0 0.029633
0.754635 0 0.0409094
0 0.584741 0
0 0.584482 0
0 0.585199 0
0 0.584802 0
0 0.585428 0
0 0.584756 0
0 0.585687 0
0 0.584695 0
0 0.584176 0
0 0.584466 0
0 0.583841 0
0.0301823 0.591669 0
0.128832 0.608408 0.0212863
0.261631 0.613108 0.032517
0.369512 0.610895 0.0400549
0.477073 0.610269 0.0487984
0.555688 0.607919 0.055314
0.633066 0.604807 0.0607919
0.706798 0.596323 0.0637522
0.779004 0.589334 0.0661631
0.835859 0.574258 0.0667277
0.88127 0.559121 0.0674601
0.913985 0.538338 0.066804
0.932723 0.512184 0.0641947
0.948333 0.482673 0.0604868
0.954223 0.439506 0.0530861
0.96025 0.394644 0.0449073
0.955703 0.307408 0.0395819
0.955993 0.219226 0.0375219
0.919631 0.0793774 0.0284733
0.799619 0 0.0199741
0.755474 0 0.0302586
0.756436 0 0.0420691
0 0.642069 0
0 0.642817 0
0 0.642542 0
0 0.643183 0
0 0.64332 0
0 0.642741 0
0 0.642664 0
0 0.642802 0
0 0.641871 0
0 0.641276 0
0 0.641123 0
0.0256352 0.648768 0.00167849
0.106737 0.665644 0.0207218
0.215061 0.673518 0.0322423
0.334096 0.673793 0.0408789
0.454429 0.674189 0.0503853
0.537911 0.67274 0.0574655
0.621134 0.67068 0.0645457
0.698924 0.665919 0.0696269
0.774914 0.66099 0.0736095
0.836789 0.650095 0.0767681
0.886534 0.635264 0.0793622
0.921477 0.618021 0.0808881
0.941802 0.593866 0.0798199
0.957595 0.568154 0.077409
0.964874 0.531701 0.0716259
0.972839 0.494652 0.0659953
0.966247 0.428061 0.0593729
0.960845 0.360418 0.0521096
0.957183 0.241871 0.0407263
0.943771 0.122148 0.0311742
0.879316 0.0337987 0.026276
0.798566 0 0.0386053
0 0.700893 0
0 0.701671 0
0 0.702434 0
0 0.701625 0
0 0.702876 0
0 0.702403 0
0 0.70193 0
0 0.702281 0
0 0.702052 0
0 0.701671 0
0 0.701183 0
0.0221256 0.708019 0.0021973
0.0851911 0.722744 0.0180514
0.171893 0.731975 0.0298314
0.295796 0.736812 0.0393378
0.427451 0.739925 0.049836
0.517891 0.739849 0.0583047
0.607813 0.740749 0.0671855
0.689479 0.739544 0.0740978
0.771969 0.736675 0.0802319
0.837903 0.728435 0.0852064
0.892241 0.717952 0.0905623
0.929519 0.703548 0.0945754
0.951522 0.68278 0.0958724
0.969787 0.660471 0.0962539
0.979507 0.62948 0.0928511
0.988022 0.599435 0.0885481
0.982818 0.5523 0.0794232
0.978958 0.507103 0.0710002
0.970733 0.42649 0.0554208
0.964004 0.342412 0.0385595
0.956802 0.172183 0.0381476
0.844373 0.00444038 0.0392462
0 0.750927 0
0 0.751461 0
0 0.751629 0
0 0.751781 0
0 0.751537 0
0 0.751919 0
0 0.751934 0
0 0.751431 0
0 0.75201 0
0 0.751324 0
0 0.7505 0
0.0168765 0.755306 0.00238041
0.0577249 0.765118 0.01355
0.119158 0.775891 0.0253452
0.244526 0.785245 0.0378119
0.383246 0.792126 0.0497597
0.485298 0.795026 0.0597391
0.587564 0.799115 0.0712596
0.674586 0.799176 0.07953
0.760586 0.799268 0.0869612
0.831891 0.79501 0.0933242
0.891875 0.7906 0.100053
0.932708 0.780896 0.106035
0.957916 0.765438 0.10927
0.978515 0.747372 0.111543
0.990036 0.721172 0.110369
0.998901 0.693278 0.108492
0.998123 0.654139 0.101457
0.995026 0.615991 0.0932784
0.986786 0.554086 0.0790875
0.980362 0.491417 0.0660868
0.963485 0.351202 0.0559243
0.958053 0.183032 0.0555123
0.00215152 0.793851 0.0009308
0.00222782 0.794461 0.00102235
0.00221256 0.794308 0.0010071
0.00225834 0.794507 0.00103761
0.00228885 0.794705 0.00108339
0.00236515 0.795209 0.00112917
0.00231937 0.794949 0.00109865
0.00231937 0.79498 0.00109865
0.00241093 0.795773 0.00115969
0.00234989 0.794858 0.00109865
0.00247196 0.79501 0.00114443
0.0116274 0.797803 0.00407416
0.029572 0.801968 0.00943008
0.0714733 0.811994 0.0205081
0.191379 0.828183 0.0383154
0.336797 0.839139 0.0527504
0.451148 0.845319 0.0641337
0.56936 0.851774 0.0779431
0.658457 0.854414 0.0873274
0.748211 0.855924 0.0955062
0.825772 0.855528 0.102708
0.8925 0.85626 0.111254
0.93698 0.852796 0.118532
0.964614 0.842359 0.122911
0.987274 0.830777 0.126864
0.998901 0.809613 0.126299
0.998901 0.78793 0.125719
0.998901 0.757015 0.12134
0.998901 0.726833 0.116442
0.998901 0.682918 0.108248
0.998901 0.637903 0.0988632
0.987991 0.549752 0.08336
0.97435 0.448234 0.0672923
0.00875868 0.829938 0.00737011
0.00885023 0.83032 0.0074464
0.00877394 0.829969 0.00737011
0.00885023 0.830304 0.0074464
0.00892653 0.830655 0.0075227
0.00894179 0.830732 0.00753796
0.00889601 0.830564 0.00750744
0.00895705 0.830808 0.00755322
0.00889601 0.830564 0.00750744
0.00886549 0.830411 0.00747692
0.00881972 0.830198 0.00741588
0.012253 0.83122 0.00860609
0.0184787 0.832731 0.0104372
0.0504768 0.840848 0.019791
0.154665 0.859754 0.0404364
0.286702 0.873014 0.0560616
0.411307 0.882658 0.0695201
0.543755 0.890959 0.0846723
0.636225 0.89485 0.094789
0.730343 0.896498 0.103487
0.813581 0.897642 0.111452
0.884932 0.899062 0.119799
0.933684 0.89839 0.127916
0.966125 0.894865 0.134508
0.991501 0.88777 0.139422
0.998901 0.873564 0.139986
0.998901 0.85832 0.139879
0.998901 0.83653 0.136416
0.998901 0.813352 0.13283
0.998901 0.782803 0.127413
0.998901 0.751431 0.12195
0.998901 0.688045 0.109773
0.998901 0.616159 0.0941634
0.0154116 0.857313 0.0139467
0.0154726 0.857481 0.0139925
0.0155795 0.857862 0.0141146
0.0156252 0.858 0.0141604
0.015671 0.858137 0.0141909
0.0157931 0.858503 0.014313
0.0156863 0.858167 0.0142061
0.0157015 0.858213 0.0142214
0.0157931 0.858503 0.014313
0.0157626 0.858442 0.0142977
0.015671 0.858122 0.0141909
0.0173953 0.858747 0.014847
0.0204776 0.859464 0.0158389
0.04654 0.866712 0.0240177
0.126177 0.883452 0.0429847
0.231632 0.896254 0.0578927
0.368383 0.909728 0.0746471
0.517372 0.920501 0.0914931
0.612924 0.925078 0.102342
0.710491 0.927367 0.111681
0.797757 0.927993 0.119326
0.873564 0.929442 0.12813
0.927413 0.93109 0.136934
0.966476 0.932189 0.145708
0.995346 0.930877 0.152407
0.998901 0.922515 0.153826
0.998901 0.913298 0.154543
0.998901 0.898146 0.151415
0.998901 0.881605 0.148943
0.998901 0.86247 0.144259
0.998901 0.84097 0.139635
0.998901 0.803769 0.13196
0.998901 0.759625 0.123934
0.0241093 0.881712 0.0225834
0.0241398 0.881804 0.0226139
0.0242313 0.882048 0.0227054
0.0242618 0.882139 0.0227512
0.0242313 0.882063 0.0227207
0.0242771 0.882155 0.0227512
0.0242618 0.882109 0.0227207
0.0243839 0.882414 0.0228428
0.0243839 0.882414 0.0228428
0.0244144 0.882521 0.0228885
0.0243229 0.882277 0.022797
0.0247349 0.882155 0.0228733
0.0255741 0.882399 0.0231632
0.0461738 0.888365 0.029984
0.106981 0.902602 0.0462959
0.190738 0.915755 0.0611124
0.333211 0.93135 0.0799573
0.489235 0.94406 0.0979934
0.589044 0.949462 0.109209
0.690455 0.952285 0.119554
0.780224 0.952712 0.127062
0.859754 0.953109 0.134981
0.920119 0.95523 0.144533
0.96408 0.958373 0.154711
0.995178 0.959152 0.16228
0.998901 0.954955 0.165499
0.998901 0.950347 0.16788
0.998901 0.940917 0.165988
0.998901 0.931777 0.164736
0.998901 0.917876 0.160082
0.998901 0.903136 0.155734
0.998901 0.882383 0.150439
0.998901 0.858213 0.144366
0.0315709 0.89987 0.0300145
0.0315709 0.89987 0.0300145
0.0315404 0.899825 0.0299992
0.0317235 0.900221 0.0301671
0.031693 0.90016 0.0301366
0.0318761 0.900587 0.0303197
0.0319219 0.90071 0.0303655
0.0318608 0.900572 0.0303044
0.0318761 0.900587 0.0303197
0.0318151 0.900435 0.0302434
0.0317998 0.90042 0.0302434
0.032105 0.900587 0.0303807
0.0325017 0.900618 0.0304875
0.049546 0.905547 0.0362249
0.0956436 0.917342 0.0495766
0.1635 0.929488 0.0635996
0.304555 0.946975 0.0843824
0.458259 0.960754 0.102998
0.561807 0.966964 0.114427
0.667811 0.970901 0.125689
0.760708 0.970886 0.133104
0.84387 0.970794 0.140902
0.909361 0.972168 0.14995
0.956725 0.974609 0.159304
0.990326 0.976455 0.168276
0.998901 0.976486 0.173846
0.998901 0.974929 0.178164
0.998901 0.970504 0.178988
0.998901 0.965713 0.179324
0.998901 0.955077 0.174868
0.998901 0.944381 0.170748
0.998901 0.932204 0.166384
0.998901 0.919112 0.161593
0.0390021 0.915862 0.0376745
0.0390173 0.915877 0.0376898
0.0390326 0.915908 0.0376898
0.0390021 0.915862 0.0376745
0.0390173 0.915892 0.0376898
0.0390478 0.915938 0.037705
0.0389868 0.915816 0.0376287
0.0389868 0.915816 0.0376287
0.0389258 0.915694 0.0375677
0.0389105 0.915663 0.0375525
0.0388647 0.915587 0.0375067
0.0388495 0.915465 0.0374609
0.0388647 0.915328 0.0374151
0.051606 0.918898 0.0415198
0.083299 0.927565 0.051606
0.137438 0.938811 0.0648356
0.275547 0.957977 0.0872816
0.425391 0.97261 0.106004
0.533379 0.979782 0.118029
0.645289 0.983948 0.129793
0.739834 0.984573 0.137545
0.827649 0.984131 0.145281
0.895994 0.984161 0.152987
0.947814 0.985855 0.162295
0.984039 0.988663 0.171862
0.998901 0.990494 0.178943
0.998901 0.991073 0.184802
0.998901 0.989288 0.187243
0.998901 0.986877 0.189258
0.998901 0.979919 0.186587
0.998901 0.972992 0.184085
0.998901 0.96611 0.180957
0.998901 0.958694 0.177432
0.0411841 0.920333 0.0400549
0.0411688 0.920317 0.0400397
0.0411841 0.920363 0.0400549
0.0412146 0.920424 0.0401007
0.0411688 0.920317 0.0400244
0.0411383 0.920272 0.0399786
0.0411078 0.920226 0.0399329
0.0410773 0.920165 0.0398566
0.0410315 0.920089 0.0397955
