A7III_SLOG3_REC709_DOC_BASE.cube
TITLE "Generated by Resolve"
LUT_3D_SIZE 5
0.0231479 0.0231479 0.0231479
0.0925154 0.0439002 0.0439002
0.438315 0.00883497 0.0112917
0.721065 0 0
0.751827 0 0.0297398
0.0539406 0.111055 0.0537423
0.102998 0.105303 0.0569619
0.465019 0.0277409 0.01178
0.724453 0 0
0.752483 0 0.033341
0 0.523613 0
0 0.521889 0
0.560037 0.537148 0.0484169
0.936248 0.372747 0.0396735
0.754635 0 0.0409094
0.0241093 0.881712 0.0225834
0.0243839 0.882414 0.0228428
0.333211 0.93135 0.0799573
0.995178 0.959152 0.16228
0.998901 0.858213 0.144366
0.0690166 0.949233 0.303685
0.0692912 0.949477 0.309606
0.291325 0.990677 0.362478
0.946975 0.998901 0.375387
0.998901 0.998901 0.202579
0.0323491 0.0366827 0.072343
0.0928969 0.0449836 0.0814679
0.442374 0.00929274 0.0525063
0.720913 0 0
0.749599 0 0.0123445
0.0531014 0.102159 0.0901808
0.0947585 0.0964981 0.0941329
0.460487 0.018555 0.0564431
0.724651 0 0
0.750393 0 0.0149691
0 0.520943 0.0191653
0 0.519677 0.0176547
0.557351 0.536141 0.0726482
0.936889 0.376806 0.0418555
0.752483 0 0.0208438
0.026978 0.882887 0.047364
0.0271153 0.883482 0.0464942
0.321111 0.930404 0.0919051
0.994797 0.958053 0.161898
0.998901 0.862013 0.145266
0.0740978 0.953613 0.389166
0.0743572 0.953872 0.392233
0.299153 0.99469 0.45127
0.940414 0.998901 0.487999
0.998901 0.998901 0.20737
0.0222324 0.0424353 0.337865
0.0559701 0.0431373 0.354131
0.431571 0 0.361685
0.732937 0 0.282048
0.75285 0 0.0506447
0.0217746 0.0427253 0.345418
0.0405127 0.0426947 0.356191
0.438178 0 0.371328
0.735973 0 0.294408
0.751125 0 0.060441
0 0.4907 0.399573
0 0.488853 0.401785
0.493324 0.505745 0.490562
0.903014 0.318532 0.433616
0.762005 0 0.0770123
0.0471962 0.894682 0.451698
0.0475776 0.895537 0.454093
0.312825 0.941527 0.525216
0.972732 0.964523 0.591211
0.998901 0.87013 0.331273
0.0820783 0.961929 0.557717
0.0821698 0.962036 0.560174
0.276616 0.997024 0.619379
0.929839 0.998901 0.719722
0.998901 0.998901 0.611093
0 0.0300755 0.641566
0 0.0299992 0.643153
0.371786 0 0.707378
0.730831 0 0.679179
0.760632 0 0.636362
0 0.0298924 0.645136
0 0.0298161 0.646738
0.371939 0 0.71136
0.734737 0 0.68513
0.76054 0 0.642939
0 0.366583 0.761395
0 0.361654 0.764294
0.368963 0.344564 0.865812
0.886625 0.0857252 0.830045
0.766934 0 0.654978
0.0378576 0.88217 0.778088
0.0379187 0.882414 0.779477
0.213642 0.916426 0.84065
0.944213 0.948013 0.94197
0.995636 0.877348 0.917357
0.0852064 0.971832 0.806058
0.085359 0.972107 0.808011
0.198566 0.995468 0.849897
0.933288 0.998901 0.956771
0.998901 0.998901 0.963287
0 0.0264134 0.69659
0 0.0264134 0.696681
0.295583 0 0.764874
0.708354 0 0.75758
0.7608 0 0.766903
0 0.0264134 0.696742
0 0.0264134 0.696834
0.284031 0 0.764721
0.711711 0 0.758495
0.765682 0 0.768566
0 0.279423 0.859098
0 0.277272 0.858778
0.249409 0.250675 0.950317
0.828504 0.0497292 0.905699
0.770504 0 0.768673
0.0130617 0.817105 0.846464
0.0132143 0.817761 0.846799
0.133822 0.843717 0.888441
0.920485 0.926101 0.990585
0.997024 0.831632 0.990005
0.0819715 0.971756 0.906325
0.0820478 0.971908 0.906889
0.20589 0.997787 0.945693
0.923903 0.998901 0.998901
0.998901 0.998901 0.998901
